Printex-remake/img/icons/catalog_small/02.svg

<svg width="94" height="87" viewBox="0 0 94 87" fill="none" xmlns="http://www.w3.org/2000/svg">
<g clip-path="url(#clip0)">
<path d="M76.3625 48.4312L90.8529 51.0248L37.9272 81.9009L23.4368 79.3073L76.3625 48.4312Z" fill="#D7C7ED"/>
<path d="M15.985 60.9822L15.985 61.8189L16.399 62.2372L18.8831 70.1864L14.2513 69.1604L4.39267 67.5927L15.985 60.9822Z" fill="#D7C7ED"/>
<path d="M65.0804 4.89575L11.4191 36.2057L5.2207 67.2408L15.9513 60.9823" stroke="black" stroke-linecap="round" stroke-linejoin="bevel"/>
<path d="M24.231 79.3907L20.8245 78.3815L15.1228 57.6353L10.4756 41.1985" stroke="black" stroke-linecap="round" stroke-linejoin="bevel"/>
<path d="M14.7109 34.9989L64.744 5.80596L76.2987 46.6738L26.2656 75.8668L14.7109 34.9989Z" fill="#E5D4FC"/>
<path d="M11.8545 35.9315L65.5158 4.62158L77.9084 48.453L24.2471 79.7629L11.8545 35.9315Z" stroke="black" stroke-linejoin="bevel"/>
<path d="M22.0862 36.0234C22.386 37.2329 21.9105 38.9163 21.024 39.7835C20.1375 40.6507 19.1758 40.3733 18.8759 39.1639C18.576 37.9544 19.0516 36.271 19.9381 35.4038C20.8245 34.5366 21.7863 34.814 22.0862 36.0234Z" fill="#D7C7ED"/>
<path d="M29.0657 32.1713C29.3655 33.3807 28.89 35.0642 28.0035 35.9314C27.117 36.7986 26.1553 36.5211 25.8554 35.3117C25.5555 34.1023 26.0311 32.4188 26.9175 31.5516C27.804 30.6844 28.7658 30.9618 29.0657 32.1713Z" fill="#D7C7ED"/>
<path d="M35.8791 28.3113C36.179 29.5207 35.7035 31.2042 34.817 32.0714C33.9305 32.9386 32.9687 32.6612 32.6689 31.4517C32.369 30.2423 32.8445 28.5588 33.731 27.6916C34.6175 26.8244 35.5793 27.1018 35.8791 28.3113Z" fill="#D7C7ED"/>
<path d="M42.6936 24.4514C42.9935 25.6608 42.5179 27.3443 41.6314 28.2115C40.7449 29.0787 39.7832 28.8013 39.4833 27.5919C39.1834 26.3824 39.659 24.699 40.5455 23.8318C41.432 22.9646 42.3937 23.242 42.6936 24.4514Z" fill="#D7C7ED"/>
<path d="M49.5071 20.5913C49.8069 21.8007 49.3314 23.4842 48.4449 24.3514C47.5584 25.2186 46.5967 24.9412 46.2968 23.7318C45.9969 22.5223 46.4725 20.8389 47.359 19.9717C48.2454 19.1044 49.2072 19.3819 49.5071 20.5913Z" fill="#D7C7ED"/>
<path d="M56.3215 16.7313C56.6214 17.9408 56.1459 19.6242 55.2594 20.4914C54.3729 21.3586 53.4111 21.0812 53.1112 19.8718C52.8114 18.6623 53.2869 16.9789 54.1734 16.1117C55.0599 15.2445 56.0216 15.5219 56.3215 16.7313Z" fill="#D7C7ED"/>
<path d="M63.1213 13.1643C63.4212 14.3737 62.9457 16.0572 62.0592 16.9244C61.1727 17.7916 60.2109 17.5142 59.911 16.3048C59.6112 15.0953 60.0867 13.4119 60.9732 12.5447C61.8597 11.6774 62.8214 11.9549 63.1213 13.1643Z" fill="#D7C7ED"/>
<path d="M15.308 34.3802C14.6964 33.1557 14.3291 31.8303 14.3291 30.6192C14.329 27.8441 16.2569 26.7193 18.6351 28.107C21.0133 29.4946 22.9413 32.8691 22.9414 35.6442C22.9415 37.8083 21.7691 38.9688 20.1251 38.7169" stroke="black"/>
<path d="M21.932 30.1964C21.3204 28.9719 20.9532 27.6466 20.9531 26.4355C20.953 23.6604 22.8809 22.5356 25.2591 23.9232C27.6373 25.3109 29.5653 28.6854 29.5654 31.4605C29.5655 33.6246 28.3931 34.785 26.7491 34.5331" stroke="black"/>
<path d="M28.5561 26.0126C27.9444 24.7881 27.5772 23.4628 27.5771 22.2516C27.5771 19.4765 29.5049 18.3518 31.8831 19.7394C34.2613 21.127 36.1893 24.5016 36.1894 27.2767C36.1895 29.4407 35.0172 30.6012 33.3731 30.3493" stroke="black"/>
<path d="M35.1801 21.829C34.5685 20.6045 34.2012 19.2792 34.2012 18.068C34.2011 15.293 36.1289 14.1682 38.5072 15.5558C40.8854 16.9434 42.8134 20.318 42.8135 23.0931C42.8135 25.2571 41.6412 26.4176 39.9971 26.1657" stroke="black"/>
<path d="M42.6322 18.482C42.0206 17.2575 41.6534 15.9321 41.6533 14.721C41.6532 11.9459 43.5811 10.8211 45.9593 12.2088C48.3375 13.5964 50.2655 16.9709 50.2656 19.746C50.2657 21.9101 49.0933 23.0706 47.4493 22.8187" stroke="black"/>
<path d="M49.2563 14.2983C48.6446 13.0738 48.2774 11.7484 48.2773 10.5373C48.2773 7.76219 50.2051 6.63742 52.5833 8.02505C54.9615 9.41267 56.8895 12.7872 56.8896 15.5623C56.8897 17.7264 55.7174 18.8869 54.0733 18.6349" stroke="black"/>
<path d="M55.8813 10.1145C55.2696 8.89004 54.9024 7.56471 54.9023 6.35357C54.9023 3.57848 56.8301 2.45371 59.2083 3.84133C61.5865 5.22896 63.5145 8.60351 63.5146 11.3786C63.5147 13.5427 62.3424 14.7031 60.6983 14.4512" stroke="black"/>
<path d="M23.693 50.5033L22.3491 45.6745L26.3283 43.3528L27.6722 48.1816L23.693 50.5033Z" stroke="black"/>
<path d="M31.1452 46.3196L29.8013 41.4908L33.7804 39.1691L35.1243 43.9979L31.1452 46.3196Z" stroke="black"/>
<path d="M38.5973 42.1359L37.2534 37.3071L41.2326 34.9854L42.5765 39.8142L38.5973 42.1359Z" stroke="black"/>
<path d="M46.0495 37.9522L44.7056 33.1234L48.6847 30.8016L50.0286 35.6304L46.0495 37.9522Z" stroke="black"/>
<path d="M53.5026 33.7685L52.1587 28.9397L56.1378 26.6179L57.4818 31.4467L53.5026 33.7685Z" stroke="black"/>
<path d="M60.9548 29.5847L59.6108 24.7559L63.59 22.4342L64.9339 27.263L60.9548 29.5847Z" stroke="black"/>
<path d="M24.2656 53.8733L29.1411 51.0286L30.7244 56.7177L25.849 59.5624L24.2656 53.8733Z" fill="white"/>
<path d="M31.7178 49.6896L36.5932 46.8449L38.1766 52.534L33.3011 55.3787L31.7178 49.6896Z" fill="white"/>
<path d="M39.1699 45.5059L44.0454 42.6612L45.6287 48.3502L40.7533 51.1949L39.1699 45.5059Z" fill="white"/>
<path d="M46.6221 41.3221L51.4975 38.4774L53.0809 44.1665L48.2054 47.0112L46.6221 41.3221Z" fill="white"/>
<path d="M54.0752 37.1384L58.9507 34.2937L60.534 39.9828L55.6585 42.8275L54.0752 37.1384Z" fill="white"/>
<path d="M61.5273 32.9547L66.4028 30.11L67.9862 35.7991L63.1107 38.6438L61.5273 32.9547Z" fill="white"/>
</g>
<defs>
<clipPath id="clip0">
<rect width="94" height="87" fill="white"/>
</clipPath>
</defs>
</svg>

<svg width="94" height="87" fill="none" xmlns="http://www.w3.org/2000/svg"><g clip-path="url(#clip0)"><path d="M76.362 48.431l14.49 2.594L37.928 81.9l-14.49-2.594L76.363 48.43zM15.985 60.982v.837l.414.418 2.484 7.95-4.632-1.027-9.858-1.567 11.592-6.61z" fill="#D7C7ED"/><path d="M65.08 4.896l-53.66 31.31-6.2 31.035 10.731-6.259" stroke="#000" stroke-linecap="round" stroke-linejoin="bevel"/><path d="M24.231 79.39l-3.407-1.008-5.701-20.747L10.476 41.2" stroke="#000" stroke-linecap="round" stroke-linejoin="bevel"/><path d="M14.71 34.999L64.745 5.806 76.3 46.674 26.267 75.867 14.71 34.999z" fill="#E5D4FC"/><path d="M11.854 35.931l53.662-31.31 12.392 43.832-53.66 31.31L11.853 35.93z" stroke="#000" stroke-linejoin="bevel"/><path d="M22.086 36.023c.3 1.21-.175 2.893-1.062 3.76-.887.868-1.848.59-2.148-.62-.3-1.209.176-2.892 1.062-3.76.887-.866 1.848-.589 2.148.62zm6.98-3.852c.3 1.21-.176 2.893-1.063 3.76-.886.868-1.848.59-2.148-.62-.3-1.209.176-2.892 1.063-3.76.886-.867 1.848-.59 2.148.62zm6.814-3.86c.299 1.21-.177 2.893-1.063 3.76-.886.868-1.848.59-2.148-.62-.3-1.209.175-2.892 1.062-3.76.886-.867 1.848-.59 2.148.62zm6.814-3.86c.3 1.21-.176 2.893-1.063 3.76-.886.868-1.848.59-2.148-.62-.3-1.209.176-2.892 1.063-3.76.886-.866 1.848-.589 2.148.62zm6.813-3.86c.3 1.21-.176 2.893-1.062 3.76-.887.868-1.848.59-2.148-.62-.3-1.209.175-2.892 1.062-3.76.886-.867 1.848-.59 2.148.62zm6.815-3.86c.3 1.21-.176 2.893-1.063 3.76-.886.868-1.848.59-2.148-.62-.3-1.209.176-2.892 1.062-3.76.887-.867 1.849-.59 2.148.62zm6.799-3.567c.3 1.21-.175 2.893-1.062 3.76-.886.868-1.848.59-2.148-.62-.3-1.209.176-2.892 1.062-3.76.887-.867 1.848-.59 2.148.62z" fill="#D7C7ED"/><path d="M15.308 34.38c-.612-1.224-.979-2.55-.979-3.76 0-2.776 1.928-3.9 4.306-2.513 2.378 1.388 4.306 4.762 4.306 7.537 0 2.164-1.172 3.325-2.816 3.073m1.807-8.521c-.612-1.224-.979-2.55-.979-3.76 0-2.776 1.928-3.9 4.306-2.513 2.378 1.388 4.306 4.762 4.306 7.538 0 2.164-1.172 3.324-2.816 3.072m1.807-8.52c-.612-1.225-.979-2.55-.979-3.761 0-2.775 1.928-3.9 4.306-2.513 2.378 1.388 4.306 4.763 4.306 7.538 0 2.164-1.172 3.324-2.816 3.072m1.807-8.52c-.611-1.224-.979-2.55-.979-3.761 0-2.775 1.928-3.9 4.306-2.512 2.378 1.387 4.306 4.762 4.306 7.537 0 2.164-1.172 3.325-2.816 3.073m2.635-7.684c-.611-1.224-.979-2.55-.979-3.761 0-2.775 1.928-3.9 4.306-2.512 2.378 1.387 4.306 4.762 4.307 7.537 0 2.164-1.173 3.325-2.817 3.073m1.807-8.521c-.611-1.224-.979-2.55-.979-3.76 0-2.776 1.928-3.9 4.306-2.513 2.379 1.388 4.306 4.762 4.307 7.537 0 2.164-1.173 3.325-2.817 3.073m1.808-8.521c-.611-1.224-.979-2.55-.979-3.76 0-2.776 1.928-3.9 4.306-2.513 2.379 1.388 4.306 4.763 4.307 7.538 0 2.164-1.173 3.324-2.817 3.072M23.693 50.503l-1.344-4.828 3.98-2.322 1.343 4.829-3.979 2.321zm7.452-4.183l-1.344-4.83 3.98-2.32 1.343 4.828-3.979 2.322zm7.452-4.184l-1.344-4.829 3.98-2.322 1.344 4.83-3.98 2.32zm7.453-4.184l-1.344-4.829 3.979-2.321 1.344 4.828-3.98 2.322zm7.453-4.183l-1.344-4.83 3.979-2.321 1.344 4.829-3.98 2.322zm7.452-4.184l-1.344-4.83 3.979-2.32 1.344 4.828-3.98 2.322z" stroke="#000"/><path d="M24.266 53.873l4.875-2.844 1.583 5.689-4.875 2.844-1.583-5.689zm7.452-4.183l4.875-2.845 1.584 5.689-4.876 2.845-1.583-5.69zm7.452-4.184l4.875-2.845 1.584 5.69-4.876 2.844-1.583-5.69zm7.452-4.184l4.876-2.845 1.583 5.69-4.876 2.844-1.583-5.689zm7.453-4.184l4.876-2.844 1.583 5.689-4.876 2.845-1.583-5.69zm7.452-4.183l4.876-2.845 1.583 5.69-4.875 2.844-1.584-5.69z" fill="#fff"/></g><defs><clipPath id="clip0"><path fill="#fff" d="M0 0h94v87H0z"/></clipPath></defs></svg>
